!!!OTL: Adieu du Général Bertrand (3-36), S. 92ff
!!!id: K1170
**kern
*clefG2
*k[]
*C:
{8e
8e
8c
=1
4.g
8g
8g
8g
8a
8g
=2
4g
4g}
8r
=3
{8g
8a
8g
=4
4.cc
8g
8e
8e
8g
8e
=5
2d}
8r
=6
{8d
8d
8d
=7
4.g
8g
8g
8g
8a
8b
=8
4b
4a}
8r
=9
{8a
8cc
8a
=10
4.g
8g
8f#
8g
8a
8b
=11
2g}
8r
=12
{8g
8g
8g
=13
4.dd
8dd
8cc
8b
8a
8g
=14
4cc
4cc}
8r
=15
{8g
8a
8b
=16
4cc
4e
8a
8g
8e
8c
=17
2d}
8r
=18
{8g
8g
8f
=19
4.e
8e
8f
8f
8e
8d
=20
4a
4g}
8r
=21
{8cc
8b
8a
=22
4.g
8e
8d
8d
8a
8g
=23
2e}
8r
=24
{8g
8g
8f
=25
4.e
8e
8f
8f
8e
8d
=26
4a
4g}
8r
=27
{8cc
8b
8a
=28
4.g
8g
8a
8g
8f
8d
=29
2c}
8r
=30
{8g
8g
8f
=31
4.e
8e
8f
8f
8e
8d
=32
4a
4g}
8r
=33
{8cc
8b
8a
=34
4.g
8g
8a
8g
8e
8d
=35
2c}
8r
==
*-
!!!minrhy: 8
!!!meters: 4/4 ]  ZZ[12
!!!cut: Adieu du Général Bertrand (3-36), S. 92ff
!!!reg: Luxemburg
!!!trd: KINTZELE, Guillaume: An der Ucht, Bd. 3 Luxemburg 1928
!!!rhy1: XXX  X_.XXXXX  X_X_0
!!!rhy2: XXX  X_.XXXXX  X__0
!!!key: K1170  08  C 4/4 ]  ZZ[12
!!!mod: ACHTTONSKALA DUR ?]  AMBITUS[9
!!!kad: 5265+12535151
!!!akz: 555_+132_557_54#5_+2+1+1_+162_346_523_346_561_346_561_
!!!fot: 'a__b__aw_c__d__e__f__g__f__h__f__hv_
!!!for: 'a__aw_a__aw_a__b__a__aw_a__aw_a__aw_
!!!fok: '/__^d_/__Sd_~a_^d_V__\__V__\__V__\__
!! PHRAS[AUFTAKTIG]
!!!fkt: historisches, Kriegslied
!!!bem: in der Quelle mit einer 2. Stimme versehen
!! KINTZELE
!! PR[38] 2K[2] 2G[10] 3K[6] 3G[4] 4A[4] 4Ü[0] 5A[0] 6K[0] 6G[2]
!! 7K[0] 7G[0] 8A[0] MEHR[0] SI[28] ABS[50] SR[12] SP[16]
!! ST[10] 2k[8] 2g[20] 3k[2] 3g[4] 4d[0] 4ü[0] 5d[0] 6k[0] 6g[0]
!! 7k[0] 7g[0] 8d[0] mehr[0] si[34] dm[-6] sr[28] sp[6]
!! 1F[17] 2F[31] 3F[31] 4F[4] LF[0] 2P[13] 3P[4] 4P[0] TRI[0] DF[6] AB[54]
!! TF[0] U3K[0] U3[0] U4[0] U4Ü[0] U5[0] U6K[0] U6[0] U7K[0] U7[0]
!! N1[8] N2K[0] N2[0] N3K[0] N3[10] N4[12] N4Ü[0] N5[27] N6K[0] N6[20]
!!!n7k: 0] N7[6] O1[12] O2K[0] O2[6] O3K[0] O3[0] HÖ[0
